docs/static/logo-light.svg

<svg width="288" height="36" viewBox="0 0 288 36" fill="none" xmlns="http://www.w3.org/2000/svg">
<path d="M43.82 28V14.112H46.984L47.264 16.464C47.6933 15.6427 48.3093 14.9893 49.112 14.504C49.9333 14.0187 50.8947 13.776 51.996 13.776C53.7133 13.776 55.048 14.3173 56 15.4C56.952 16.4827 57.428 18.0693 57.428 20.16V28H53.844V20.496C53.844 19.3013 53.6013 18.3867 53.116 17.752C52.6307 17.1173 51.8747 16.8 50.848 16.8C49.84 16.8 49.0093 17.1547 48.356 17.864C47.7213 18.5733 47.404 19.5627 47.404 20.832V28H43.82ZM66.0632 28.336C64.3272 28.336 62.9832 27.7947 62.0312 26.712C61.0978 25.6293 60.6312 24.0427 60.6312 21.952V14.112H64.1872V21.616C64.1872 22.8107 64.4298 23.7253 64.9152 24.36C65.4005 24.9947 66.1658 25.312 67.2112 25.312C68.2005 25.312 69.0125 24.9573 69.6472 24.248C70.3005 23.5387 70.6272 22.5493 70.6272 21.28V14.112H74.2112V28H71.0472L70.7672 25.648C70.3378 26.4693 69.7125 27.1227 68.8912 27.608C68.0885 28.0933 67.1458 28.336 66.0632 28.336ZM76.5743 28L81.6143 21.056L76.5743 14.112H80.4103L83.9383 19.04L87.4383 14.112H91.3023L86.2343 21.056L91.3023 28H87.4383L83.9383 23.072L80.4103 28H76.5743ZM99.7736 28C98.3176 28 97.151 27.6453 96.2736 26.936C95.3963 26.2267 94.9576 24.9667 94.9576 23.156V17.108H92.5776V14.112H94.9576L95.3776 10.388H98.5416V14.112H102.294V17.108H98.5416V23.184C98.5416 23.856 98.6816 24.3227 98.9616 24.584C99.2603 24.8267 99.7643 24.948 100.474 24.948H102.21V28H99.7736ZM104.195 31.108L111.195 6.244H114.695L107.667 31.108H104.195Z" fill="#003C3C"/>
<path d="M123.036 23.856C122.364 23.856 121.739 23.7813 121.16 23.632L120.124 24.668C120.441 24.836 120.871 24.976 121.412 25.088C121.953 25.2 122.831 25.312 124.044 25.424C125.892 25.592 127.236 26.0307 128.076 26.74C128.916 27.4493 129.336 28.4293 129.336 29.68C129.336 30.5013 129.112 31.276 128.664 32.004C128.216 32.7507 127.525 33.348 126.592 33.796C125.659 34.2627 124.464 34.496 123.008 34.496C121.029 34.496 119.433 34.1227 118.22 33.376C117.007 32.648 116.4 31.5467 116.4 30.072C116.4 28.8213 117.007 27.7387 118.22 26.824C117.847 26.656 117.52 26.4787 117.24 26.292C116.979 26.1053 116.745 25.9093 116.54 25.704V25.06L118.976 22.484C117.893 21.532 117.352 20.3093 117.352 18.816C117.352 17.8827 117.576 17.0333 118.024 16.268C118.491 15.5027 119.144 14.896 119.984 14.448C120.824 14 121.841 13.776 123.036 13.776C123.82 13.776 124.548 13.888 125.22 14.112H130.484V16.296L128.104 16.464C128.477 17.1733 128.664 17.9573 128.664 18.816C128.664 19.7493 128.44 20.5987 127.992 21.364C127.544 22.1293 126.891 22.736 126.032 23.184C125.192 23.632 124.193 23.856 123.036 23.856ZM123.036 21.112C123.764 21.112 124.361 20.916 124.828 20.524C125.313 20.132 125.556 19.572 125.556 18.844C125.556 18.116 125.313 17.556 124.828 17.164C124.361 16.772 123.764 16.576 123.036 16.576C122.271 16.576 121.655 16.772 121.188 17.164C120.721 17.556 120.488 18.116 120.488 18.844C120.488 19.572 120.721 20.132 121.188 20.524C121.655 20.916 122.271 21.112 123.036 21.112ZM119.676 29.708C119.676 30.3987 119.993 30.912 120.628 31.248C121.281 31.6027 122.075 31.78 123.008 31.78C123.904 31.78 124.632 31.5933 125.192 31.22C125.752 30.8653 126.032 30.38 126.032 29.764C126.032 29.26 125.845 28.84 125.472 28.504C125.117 28.168 124.399 27.9627 123.316 27.888C122.551 27.832 121.841 27.748 121.188 27.636C120.647 27.9347 120.255 28.2613 120.012 28.616C119.788 28.9707 119.676 29.3347 119.676 29.708ZM139.214 28.336C137.87 28.336 136.657 28.028 135.574 27.412C134.51 26.796 133.661 25.9467 133.026 24.864C132.41 23.7627 132.102 22.4933 132.102 21.056C132.102 19.6187 132.42 18.3587 133.054 17.276C133.689 16.1747 134.538 15.316 135.602 14.7C136.685 14.084 137.898 13.776 139.242 13.776C140.568 13.776 141.762 14.084 142.826 14.7C143.909 15.316 144.758 16.1747 145.374 17.276C146.009 18.3587 146.326 19.6187 146.326 21.056C146.326 22.4933 146.009 23.7627 145.374 24.864C144.758 25.9467 143.909 26.796 142.826 27.412C141.744 28.028 140.54 28.336 139.214 28.336ZM139.214 25.228C140.148 25.228 140.96 24.8827 141.65 24.192C142.341 23.4827 142.686 22.4373 142.686 21.056C142.686 19.6747 142.341 18.6387 141.65 17.948C140.96 17.2387 140.157 16.884 139.242 16.884C138.29 16.884 137.469 17.2387 136.778 17.948C136.106 18.6387 135.77 19.6747 135.77 21.056C135.77 22.4373 136.106 23.4827 136.778 24.192C137.469 24.8827 138.281 25.228 139.214 25.228ZM156.195 28.336C154.851 28.336 153.638 28.028 152.555 27.412C151.491 26.796 150.642 25.9467 150.007 24.864C149.391 23.7627 149.083 22.4933 149.083 21.056C149.083 19.6187 149.4 18.3587 150.035 17.276C150.67 16.1747 151.519 15.316 152.583 14.7C153.666 14.084 154.879 13.776 156.223 13.776C157.548 13.776 158.743 14.084 159.807 14.7C160.89 15.316 161.739 16.1747 162.355 17.276C162.99 18.3587 163.307 19.6187 163.307 21.056C163.307 22.4933 162.99 23.7627 162.355 24.864C161.739 25.9467 160.89 26.796 159.807 27.412C158.724 28.028 157.52 28.336 156.195 28.336ZM156.195 25.228C157.128 25.228 157.94 24.8827 158.631 24.192C159.322 23.4827 159.667 22.4373 159.667 21.056C159.667 19.6747 159.322 18.6387 158.631 17.948C157.94 17.2387 157.138 16.884 156.223 16.884C155.271 16.884 154.45 17.2387 153.759 17.948C153.087 18.6387 152.751 19.6747 152.751 21.056C152.751 22.4373 153.087 23.4827 153.759 24.192C154.45 24.8827 155.262 25.228 156.195 25.228ZM171.516 23.856C170.844 23.856 170.219 23.7813 169.64 23.632L168.604 24.668C168.922 24.836 169.351 24.976 169.892 25.088C170.434 25.2 171.311 25.312 172.524 25.424C174.372 25.592 175.716 26.0307 176.556 26.74C177.396 27.4493 177.816 28.4293 177.816 29.68C177.816 30.5013 177.592 31.276 177.144 32.004C176.696 32.7507 176.006 33.348 175.072 33.796C174.139 34.2627 172.944 34.496 171.488 34.496C169.51 34.496 167.914 34.1227 166.7 33.376C165.487 32.648 164.88 31.5467 164.88 30.072C164.88 28.8213 165.487 27.7387 166.7 26.824C166.327 26.656 166 26.4787 165.72 26.292C165.459 26.1053 165.226 25.9093 165.02 25.704V25.06L167.456 22.484C166.374 21.532 165.832 20.3093 165.832 18.816C165.832 17.8827 166.056 17.0333 166.504 16.268C166.971 15.5027 167.624 14.896 168.464 14.448C169.304 14 170.322 13.776 171.516 13.776C172.3 13.776 173.028 13.888 173.7 14.112H178.964V16.296L176.584 16.464C176.958 17.1733 177.144 17.9573 177.144 18.816C177.144 19.7493 176.92 20.5987 176.472 21.364C176.024 22.1293 175.371 22.736 174.512 23.184C173.672 23.632 172.674 23.856 171.516 23.856ZM171.516 21.112C172.244 21.112 172.842 20.916 173.308 20.524C173.794 20.132 174.036 19.572 174.036 18.844C174.036 18.116 173.794 17.556 173.308 17.164C172.842 16.772 172.244 16.576 171.516 16.576C170.751 16.576 170.135 16.772 169.668 17.164C169.202 17.556 168.968 18.116 168.968 18.844C168.968 19.572 169.202 20.132 169.668 20.524C170.135 20.916 170.751 21.112 171.516 21.112ZM168.156 29.708C168.156 30.3987 168.474 30.912 169.108 31.248C169.762 31.6027 170.555 31.78 171.488 31.78C172.384 31.78 173.112 31.5933 173.672 31.22C174.232 30.8653 174.512 30.38 174.512 29.764C174.512 29.26 174.326 28.84 173.952 28.504C173.598 28.168 172.879 27.9627 171.796 27.888C171.031 27.832 170.322 27.748 169.668 27.636C169.127 27.9347 168.735 28.2613 168.492 28.616C168.268 28.9707 168.156 29.3347 168.156 29.708ZM181.578 28V7.84H185.162V28H181.578ZM195.572 28.336C194.172 28.336 192.931 28.0373 191.848 27.44C190.765 26.8427 189.916 26.0027 189.3 24.92C188.684 23.8373 188.376 22.5867 188.376 21.168C188.376 19.7307 188.675 18.452 189.272 17.332C189.888 16.212 190.728 15.344 191.792 14.728C192.875 14.0933 194.144 13.776 195.6 13.776C196.963 13.776 198.167 14.0747 199.212 14.672C200.257 15.2693 201.069 16.0907 201.648 17.136C202.245 18.1627 202.544 19.3107 202.544 20.58C202.544 20.7853 202.535 21 202.516 21.224C202.516 21.448 202.507 21.6813 202.488 21.924H191.932C192.007 23.0067 192.38 23.856 193.052 24.472C193.743 25.088 194.573 25.396 195.544 25.396C196.272 25.396 196.879 25.2373 197.364 24.92C197.868 24.584 198.241 24.1547 198.484 23.632H202.124C201.863 24.5093 201.424 25.312 200.808 26.04C200.211 26.7493 199.464 27.3093 198.568 27.72C197.691 28.1307 196.692 28.336 195.572 28.336ZM195.6 16.688C194.723 16.688 193.948 16.94 193.276 17.444C192.604 17.9293 192.175 18.676 191.988 19.684H198.904C198.848 18.7693 198.512 18.0413 197.896 17.5C197.28 16.9587 196.515 16.688 195.6 16.688ZM205.25 21.392V18.396H216.982V21.392H205.25ZM220.968 28V17.108H219.064V14.112H220.968V12.488C220.968 10.808 221.388 9.61333 222.228 8.904C223.087 8.19467 224.244 7.84 225.7 7.84H227.24V10.892H226.26C225.644 10.892 225.205 11.0133 224.944 11.256C224.683 11.4987 224.552 11.9093 224.552 12.488V14.112H227.548V17.108H224.552V28H220.968ZM236.504 28.336C235.16 28.336 233.946 28.028 232.864 27.412C231.8 26.796 230.95 25.9467 230.316 24.864C229.7 23.7627 229.392 22.4933 229.392 21.056C229.392 19.6187 229.709 18.3587 230.344 17.276C230.978 16.1747 231.828 15.316 232.892 14.7C233.974 14.084 235.188 13.776 236.532 13.776C237.857 13.776 239.052 14.084 240.116 14.7C241.198 15.316 242.048 16.1747 242.664 17.276C243.298 18.3587 243.616 19.6187 243.616 21.056C243.616 22.4933 243.298 23.7627 242.664 24.864C242.048 25.9467 241.198 26.796 240.116 27.412C239.033 28.028 237.829 28.336 236.504 28.336ZM236.504 25.228C237.437 25.228 238.249 24.8827 238.94 24.192C239.63 23.4827 239.976 22.4373 239.976 21.056C239.976 19.6747 239.63 18.6387 238.94 17.948C238.249 17.2387 237.446 16.884 236.532 16.884C235.58 16.884 234.758 17.2387 234.068 17.948C233.396 18.6387 233.06 19.6747 233.06 21.056C233.06 22.4373 233.396 23.4827 234.068 24.192C234.758 24.8827 235.57 25.228 236.504 25.228ZM246.82 28V14.112H249.984L250.264 16.464C250.693 15.6427 251.309 14.9893 252.112 14.504C252.933 14.0187 253.895 13.776 254.996 13.776C256.713 13.776 258.048 14.3173 259 15.4C259.952 16.4827 260.428 18.0693 260.428 20.16V28H256.844V20.496C256.844 19.3013 256.601 18.3867 256.116 17.752C255.631 17.1173 254.875 16.8 253.848 16.8C252.84 16.8 252.009 17.1547 251.356 17.864C250.721 18.5733 250.404 19.5627 250.404 20.832V28H246.82ZM270.043 28C268.587 28 267.42 27.6453 266.543 26.936C265.666 26.2267 265.227 24.9667 265.227 23.156V17.108H262.847V14.112H265.227L265.647 10.388H268.811V14.112H272.563V17.108H268.811V23.184C268.811 23.856 268.951 24.3227 269.231 24.584C269.53 24.8267 270.034 24.948 270.743 24.948H272.479V28H270.043ZM281.38 28.336C280.148 28.336 279.066 28.14 278.132 27.748C277.199 27.3373 276.452 26.7773 275.892 26.068C275.332 25.3587 274.996 24.5373 274.884 23.604H278.496C278.608 24.1453 278.907 24.612 279.392 25.004C279.896 25.3773 280.54 25.564 281.324 25.564C282.108 25.564 282.678 25.4053 283.032 25.088C283.406 24.7707 283.592 24.4067 283.592 23.996C283.592 23.3987 283.331 22.9973 282.808 22.792C282.286 22.568 281.558 22.3533 280.624 22.148C280.027 22.0173 279.42 21.8587 278.804 21.672C278.188 21.4853 277.619 21.252 277.096 20.972C276.592 20.6733 276.182 20.3 275.864 19.852C275.547 19.3853 275.388 18.816 275.388 18.144C275.388 16.912 275.874 15.876 276.844 15.036C277.834 14.196 279.215 13.776 280.988 13.776C282.631 13.776 283.938 14.1587 284.908 14.924C285.898 15.6893 286.486 16.744 286.672 18.088H283.284C283.079 17.0613 282.304 16.548 280.96 16.548C280.288 16.548 279.766 16.6787 279.392 16.94C279.038 17.2013 278.86 17.528 278.86 17.92C278.86 18.3307 279.131 18.6573 279.672 18.9C280.214 19.1427 280.932 19.3667 281.828 19.572C282.799 19.796 283.686 20.048 284.488 20.328C285.31 20.5893 285.963 20.9907 286.448 21.532C286.934 22.0547 287.176 22.8107 287.176 23.8C287.195 24.6587 286.971 25.4333 286.504 26.124C286.038 26.8147 285.366 27.356 284.488 27.748C283.611 28.14 282.575 28.336 281.38 28.336Z" fill="#1A73E8"/>
<rect y="2" width="32" height="32" rx="3.84" fill="#1A73E8"/>
<path d="M11.4667 10.2667H13.5822V25.7333H11.4667V10.2667Z" fill="white"/>
<path d="M11.4667 12.2379V10.2667L20.5333 10.2667V12.2379L11.4667 12.2379Z" fill="white"/>
<path d="M13.5822 19.2131V17.2418H19.7778V19.2131H13.5822Z" fill="white"/>
</svg>

<svg width="288" height="36" viewBox="0 0 288 36" fill="none" xmlns="http://www.w3.org/2000/svg">
<path d="M43.82 28V14.112h3.164l.28 2.352a4.91 4.91 0 011.848-1.96c.821-.485 1.783-.728 2.884-.728 1.717 0 3.052.541 4.004 1.624.952 1.083 1.428 2.67 1.428 4.76V28h-3.584v-7.504c0-1.195-.243-2.11-.728-2.744-.485-.635-1.241-.952-2.268-.952-1.008 0-1.839.355-2.492 1.064-.635.71-.952 1.699-.952 2.968V28H43.82zm22.243.336c-1.736 0-3.08-.541-4.032-1.624-.933-1.083-1.4-2.67-1.4-4.76v-7.84h3.556v7.504c0 1.195.243 2.11.728 2.744.485.635 1.25.952 2.296.952.99 0 1.802-.355 2.436-1.064.653-.71.98-1.699.98-2.968v-7.168h3.584V28h-3.164l-.28-2.352a4.857 4.857 0 01-1.876 1.96c-.803.485-1.745.728-2.828.728zM76.574 28l5.04-6.944-5.04-6.944h3.836l3.528 4.928 3.5-4.928h3.864l-5.068 6.944L91.302 28h-3.864l-3.5-4.928L80.41 28h-3.836zm23.2 0c-1.456 0-2.623-.355-3.5-1.064-.878-.71-1.316-1.97-1.316-3.78v-6.048h-2.38v-2.996h2.38l.42-3.724h3.164v3.724h3.752v2.996h-3.752v6.076c0 .672.14 1.139.42 1.4.298.243.802.364 1.512.364h1.736V28h-2.436zm4.421 3.108l7-24.864h3.5l-7.028 24.864h-3.472z" fill="#003C3C"/>
<path d="M123.036 23.856a7.494 7.494 0 01-1.876-.224l-1.036 1.036c.317.168.747.308 1.288.42.541.112 1.419.224 2.632.336 1.848.168 3.192.607 4.032 1.316.84.71 1.26 1.69 1.26 2.94a4.36 4.36 0 01-.672 2.324c-.448.747-1.139 1.344-2.072 1.792-.933.467-2.128.7-3.584.7-1.979 0-3.575-.373-4.788-1.12-1.213-.728-1.82-1.83-1.82-3.304 0-1.25.607-2.333 1.82-3.248a6.812 6.812 0 01-.98-.532 5.549 5.549 0 01-.7-.588v-.644l2.436-2.576c-1.083-.952-1.624-2.175-1.624-3.668 0-.933.224-1.783.672-2.548.467-.765 1.12-1.372 1.96-1.82.84-.448 1.857-.672 3.052-.672.784 0 1.512.112 2.184.336h5.264v2.184l-2.38.168c.373.71.56 1.493.56 2.352a4.95 4.95 0 01-.672 2.548c-.448.765-1.101 1.372-1.96 1.82-.84.448-1.839.672-2.996.672zm0-2.744c.728 0 1.325-.196 1.792-.588.485-.392.728-.952.728-1.68s-.243-1.288-.728-1.68c-.467-.392-1.064-.588-1.792-.588-.765 0-1.381.196-1.848.588-.467.392-.7.952-.7 1.68s.233 1.288.7 1.68c.467.392 1.083.588 1.848.588zm-3.36 8.596c0 .69.317 1.204.952 1.54.653.355 1.447.532 2.38.532.896 0 1.624-.187 2.184-.56.56-.355.84-.84.84-1.456 0-.504-.187-.924-.56-1.26-.355-.336-1.073-.541-2.156-.616a22.236 22.236 0 01-2.128-.252c-.541.299-.933.625-1.176.98a2.021 2.021 0 00-.336 1.092zm19.538-1.372c-1.344 0-2.557-.308-3.64-.924a6.952 6.952 0 01-2.548-2.548c-.616-1.101-.924-2.37-.924-3.808 0-1.437.318-2.697.952-3.78a6.892 6.892 0 012.548-2.576c1.083-.616 2.296-.924 3.64-.924 1.326 0 2.52.308 3.584.924a6.626 6.626 0 012.548 2.576c.635 1.083.952 2.343.952 3.78 0 1.437-.317 2.707-.952 3.808a6.68 6.68 0 01-2.548 2.548c-1.082.616-2.286.924-3.612.924zm0-3.108c.934 0 1.746-.345 2.436-1.036.691-.71 1.036-1.755 1.036-3.136 0-1.381-.345-2.417-1.036-3.108-.69-.71-1.493-1.064-2.408-1.064-.952 0-1.773.355-2.464 1.064-.672.69-1.008 1.727-1.008 3.108s.336 2.427 1.008 3.136c.691.69 1.503 1.036 2.436 1.036zm16.981 3.108c-1.344 0-2.557-.308-3.64-.924a6.952 6.952 0 01-2.548-2.548c-.616-1.101-.924-2.37-.924-3.808 0-1.437.317-2.697.952-3.78a6.892 6.892 0 012.548-2.576c1.083-.616 2.296-.924 3.64-.924 1.325 0 2.52.308 3.584.924a6.626 6.626 0 012.548 2.576c.635 1.083.952 2.343.952 3.78 0 1.437-.317 2.707-.952 3.808a6.68 6.68 0 01-2.548 2.548c-1.083.616-2.287.924-3.612.924zm0-3.108c.933 0 1.745-.345 2.436-1.036.691-.71 1.036-1.755 1.036-3.136 0-1.381-.345-2.417-1.036-3.108-.691-.71-1.493-1.064-2.408-1.064-.952 0-1.773.355-2.464 1.064-.672.69-1.008 1.727-1.008 3.108s.336 2.427 1.008 3.136c.691.69 1.503 1.036 2.436 1.036zm15.321-1.372a7.494 7.494 0 01-1.876-.224l-1.036 1.036c.318.168.747.308 1.288.42.542.112 1.419.224 2.632.336 1.848.168 3.192.607 4.032 1.316.84.71 1.26 1.69 1.26 2.94a4.36 4.36 0 01-.672 2.324c-.448.747-1.138 1.344-2.072 1.792-.933.467-2.128.7-3.584.7-1.978 0-3.574-.373-4.788-1.12-1.213-.728-1.82-1.83-1.82-3.304 0-1.25.607-2.333 1.82-3.248a6.812 6.812 0 01-.98-.532 5.62 5.62 0 01-.7-.588v-.644l2.436-2.576c-1.082-.952-1.624-2.175-1.624-3.668 0-.933.224-1.783.672-2.548.467-.765 1.12-1.372 1.96-1.82.84-.448 1.858-.672 3.052-.672.784 0 1.512.112 2.184.336h5.264v2.184l-2.38.168c.374.71.56 1.493.56 2.352a4.95 4.95 0 01-.672 2.548c-.448.765-1.101 1.372-1.96 1.82-.84.448-1.838.672-2.996.672zm0-2.744c.728 0 1.326-.196 1.792-.588.486-.392.728-.952.728-1.68s-.242-1.288-.728-1.68c-.466-.392-1.064-.588-1.792-.588-.765 0-1.381.196-1.848.588-.466.392-.7.952-.7 1.68s.234 1.288.7 1.68c.467.392 1.083.588 1.848.588zm-3.36 8.596c0 .69.318 1.204.952 1.54.654.355 1.447.532 2.38.532.896 0 1.624-.187 2.184-.56.56-.355.84-.84.84-1.456 0-.504-.186-.924-.56-1.26-.354-.336-1.073-.541-2.156-.616a22.275 22.275 0 01-2.128-.252c-.541.299-.933.625-1.176.98a2.021 2.021 0 00-.336 1.092zM181.578 28V7.84h3.584V28h-3.584zm13.994.336c-1.4 0-2.641-.299-3.724-.896a6.482 6.482 0 01-2.548-2.52c-.616-1.083-.924-2.333-.924-3.752 0-1.437.299-2.716.896-3.836.616-1.12 1.456-1.988 2.52-2.604 1.083-.635 2.352-.952 3.808-.952 1.363 0 2.567.299 3.612.896a6.312 6.312 0 012.436 2.464c.597 1.027.896 2.175.896 3.444 0 .205-.009.42-.028.644 0 .224-.009.457-.028.7h-10.556c.075 1.083.448 1.932 1.12 2.548.691.616 1.521.924 2.492.924.728 0 1.335-.159 1.82-.476a3.1 3.1 0 001.12-1.288h3.64c-.261.877-.7 1.68-1.316 2.408a6.325 6.325 0 01-2.24 1.68c-.877.41-1.876.616-2.996.616zm.028-11.648c-.877 0-1.652.252-2.324.756-.672.485-1.101 1.232-1.288 2.24h6.916c-.056-.915-.392-1.643-1.008-2.184-.616-.541-1.381-.812-2.296-.812zm9.65 4.704v-2.996h11.732v2.996H205.25zM220.968 28V17.108h-1.904v-2.996h1.904v-1.624c0-1.68.42-2.875 1.26-3.584.859-.71 2.016-1.064 3.472-1.064h1.54v3.052h-.98c-.616 0-1.055.121-1.316.364-.261.243-.392.653-.392 1.232v1.624h2.996v2.996h-2.996V28h-3.584zm15.536.336c-1.344 0-2.558-.308-3.64-.924a6.945 6.945 0 01-2.548-2.548c-.616-1.101-.924-2.37-.924-3.808 0-1.437.317-2.697.952-3.78a6.884 6.884 0 012.548-2.576c1.082-.616 2.296-.924 3.64-.924 1.325 0 2.52.308 3.584.924a6.632 6.632 0 012.548 2.576c.634 1.083.952 2.343.952 3.78 0 1.437-.318 2.707-.952 3.808a6.686 6.686 0 01-2.548 2.548c-1.083.616-2.287.924-3.612.924zm0-3.108c.933 0 1.745-.345 2.436-1.036.69-.71 1.036-1.755 1.036-3.136 0-1.381-.346-2.417-1.036-3.108-.691-.71-1.494-1.064-2.408-1.064-.952 0-1.774.355-2.464 1.064-.672.69-1.008 1.727-1.008 3.108s.336 2.427 1.008 3.136c.69.69 1.502 1.036 2.436 1.036zM246.82 28V14.112h3.164l.28 2.352a4.907 4.907 0 011.848-1.96c.821-.485 1.783-.728 2.884-.728 1.717 0 3.052.541 4.004 1.624.952 1.083 1.428 2.67 1.428 4.76V28h-3.584v-7.504c0-1.195-.243-2.11-.728-2.744-.485-.635-1.241-.952-2.268-.952-1.008 0-1.839.355-2.492 1.064-.635.71-.952 1.699-.952 2.968V28h-3.584zm23.223 0c-1.456 0-2.623-.355-3.5-1.064-.877-.71-1.316-1.97-1.316-3.78v-6.048h-2.38v-2.996h2.38l.42-3.724h3.164v3.724h3.752v2.996h-3.752v6.076c0 .672.14 1.139.42 1.4.299.243.803.364 1.512.364h1.736V28h-2.436zm11.337.336c-1.232 0-2.314-.196-3.248-.588-.933-.41-1.68-.97-2.24-1.68a4.823 4.823 0 01-1.008-2.464h3.612c.112.541.411 1.008.896 1.4.504.373 1.148.56 1.932.56s1.354-.159 1.708-.476c.374-.317.56-.681.56-1.092 0-.597-.261-.999-.784-1.204-.522-.224-1.25-.439-2.184-.644a23.9 23.9 0 01-1.82-.476 9.359 9.359 0 01-1.708-.7 3.965 3.965 0 01-1.232-1.12c-.317-.467-.476-1.036-.476-1.708 0-1.232.486-2.268 1.456-3.108.99-.84 2.371-1.26 4.144-1.26 1.643 0 2.95.383 3.92 1.148.99.765 1.578 1.82 1.764 3.164h-3.388c-.205-1.027-.98-1.54-2.324-1.54-.672 0-1.194.13-1.568.392-.354.261-.532.588-.532.98 0 .41.271.737.812.98.542.243 1.26.467 2.156.672.971.224 1.858.476 2.66.756.822.261 1.475.663 1.96 1.204.486.523.728 1.279.728 2.268a3.895 3.895 0 01-.672 2.324c-.466.69-1.138 1.232-2.016 1.624-.877.392-1.913.588-3.108.588z" fill="#1A73E8"/>
<rect y="2" width="32" height="32" rx="3.84" fill="#1A73E8"/><path d="M11.467 10.267h2.115v15.466h-2.115V10.267z" fill="#fff"/>
<path d="M11.467 12.238v-1.971h9.066v1.97h-9.066zM13.582 19.213v-1.971h6.196v1.971h-6.196z" fill="#fff"/>
</svg>
